svgs/sharp-regular/up-from-bracket.svg

<svg xmlns="http://www.w3.org/2000/svg" viewBox="0 0 448 512"><!--! Font Awesome Pro 6.4.0 by @fontawesome - https://fontawesome.com License - https://fontawesome.com/license (Commercial License) Copyright 2023 Fonticons, Inc. --><path d="M256 224V176h48 28.1L224 67.9 115.9 176H144h48v48 80h64V224zm1.9-190.1L384 160v16 48H352 336 304v48 32 48H256 192 144V304 272 224H112 96 64V176 160L190.1 33.9 224 0l33.9 33.9zM48 344V464H400V344 320h48v24V488v24H424 24 0V488 344 320H48v24z"/></svg>

<svg xmlns="http://www.w3.org/2000/svg" viewBox="0 0 448 512"><!--! Font Awesome Pro 6.6.0 by @fontawesome - https://fontawesome.com License - https://fontawesome.com/license (Commercial License) Copyright 2024 Fonticons, Inc. --><path d="M256 224l0-48 48 0 28.1 0L224 67.9 115.9 176l28.1 0 48 0 0 48 0 80 64 0 0-80zm1.9-190.1L384 160l0 16 0 48-32 0-16 0-32 0 0 48 0 32 0 48-48 0-64 0-48 0 0-48 0-32 0-48-32 0-16 0-32 0 0-48 0-16L190.1 33.9 224 0l33.9 33.9zM48 344l0 120 352 0 0-120 0-24 48 0 0 24 0 144 0 24-24 0L24 512 0 512l0-24L0 344l0-24 48 0 0 24z"/></svg>
